X:1758
T:Where Did You Find Her?
M:C|
L:1/8
N:"collected by McFadden"
B:O'Neill's 1758
R:Hornpipe
Z:"Transcribed by Bob Safranek, rjs@gsp.org"
K:D
   {g}fe | dAFA   DAFA   |   dAGA     DAFA   | ((3Bcd) ef gefd | edcB  Agfe |
           dAFA   DAFA   |   dAGA    D2 FA   |    B>ged   cABc | d2 f2 d2  :|
|: (fg)  | afdf .A>(dcd) | .F>(dcd) .A>(dcd) | ((3Bcd) ef gefd | cdef e2 (b^g)|
           afdf .A>(dcd) | .F>(dcd) .A>(dcd) |    B>ged   cABc | d2 f2 d2  :|


